icons/helpscout-logo.svg

<?xml version="1.0" encoding="UTF-8"?>
<svg width="512px" height="102px" viewBox="0 0 512 102" version="1.1" xmlns="http://www.w3.org/2000/svg" xmlns:xlink="http://www.w3.org/1999/xlink" preserveAspectRatio="xMidYMid">
    <g>
        <path d="M140.797384,19.1996433 L140.61453,19.2605945 L140.61453,46.5058026 L114.771201,46.5058026 L114.771201,19.2605945 L114.588347,19.1996433 C110.748419,18.4072771 106.969441,18.4072771 103.190464,19.1996433 L103.00761,19.2605945 L103.00761,81.918478 L103.190464,81.9794293 C105.079952,82.3451367 106.969441,82.5889417 108.85893,82.5889417 C110.748419,82.5889417 112.637907,82.406088 114.588347,81.9794293 L114.771201,81.918478 L114.771201,56.5018074 L140.61453,56.5018074 L140.61453,81.918478 L140.797384,81.9794293 C144.576361,82.7717955 148.41629,82.7717955 152.195268,81.9794293 L152.378121,81.918478 L152.378121,19.2605945 L152.195268,19.1996433 C148.355339,18.4682283 144.576361,18.4682283 140.797384,19.1996433 L140.797384,19.1996433 Z M180.842354,36.8145541 C167.311177,36.8145541 159.265612,45.3477289 159.265612,59.6712723 C159.265612,67.1073246 160.972247,73.0195957 164.385517,77.1033294 C168.103543,81.5527705 173.650107,83.8079667 181.025208,83.8079667 C193.520214,83.8079667 199.920095,76.3719144 200.712461,68.9968133 L200.712461,68.8139596 L200.529608,68.7530083 C197.360143,67.7168371 194.434483,67.4730321 190.960262,67.9606421 L190.838359,67.9606421 L190.838359,68.0825446 C190.106944,72.4710345 186.449869,75.0919382 181.147111,75.0919382 C173.711058,75.0919382 170.053983,71.0082045 169.932081,62.5969322 L201.382925,62.5969322 L201.382925,62.4140785 C202.297194,54.1247087 200.65151,47.4200713 196.628728,42.8487277 C192.910702,38.9478478 187.48604,36.8145541 180.842354,36.8145541 L180.842354,36.8145541 Z M180.720452,44.9210702 C183.828966,44.9210702 186.449869,45.8962901 188.217455,47.7857788 C190.045993,49.7362188 190.960262,52.6618787 190.777408,56.1360999 L169.932081,56.1360999 C170.114935,49.0048038 174.076766,44.9210702 180.720452,44.9210702 L180.720452,44.9210702 Z M209.001831,19.1996433 L208.818977,19.2605945 L208.818977,81.918478 L209.001831,81.9794293 C210.769417,82.3451367 212.537004,82.5889417 214.365541,82.5889417 C216.133127,82.5889417 217.961665,82.406088 219.729251,81.9794293 L219.912105,81.918478 L219.912105,19.2605945 L219.729251,19.1996433 C216.194078,18.4072771 212.597955,18.4682283 209.001831,19.1996433 Z M250.753436,36.8145541 C246.06019,36.8145541 241.123139,38.6430916 236.429893,42.1173127 L235.759429,38.8259453 L235.637527,38.7649941 C232.955672,37.9726278 230.761427,37.9726278 228.140523,38.7649941 L228.018621,38.8259453 L228.018621,101.179073 L228.201474,101.240024 C229.969061,101.605731 231.736647,101.849536 233.565184,101.849536 C235.393722,101.849536 237.161308,101.666683 238.928894,101.240024 L239.111748,101.179073 L239.111748,80.3337455 C242.829774,82.7108442 246.791605,83.8079667 251.241046,83.8079667 C263.553199,83.8079667 270.9283,75.0919382 270.9283,60.4026873 C270.867348,45.4696314 263.553199,36.8145541 250.753436,36.8145541 Z M238.928894,49.1876576 C242.220262,46.9324614 245.267824,45.8962901 248.559191,45.8962901 C256.056195,45.8962901 260.139929,51.0771463 260.139929,60.585541 C260.139929,69.911082 256.117146,74.8481332 248.437289,74.8481332 C245.145922,74.8481332 242.037408,73.811962 238.928894,71.617717 L238.928894,49.1876576 Z M317.921712,48.2124376 C316.032224,47.4810226 314.325589,46.8715101 312.679905,46.3229489 C304.14673,43.2753864 299.026825,41.446849 298.904923,36.8145541 C298.843971,34.6812604 299.514435,32.8527229 300.977265,31.3289417 C303.110559,29.1346968 306.706683,27.9766231 311.095172,27.9766231 C315.422711,27.9766231 318.77503,29.1346968 320.786421,31.2679905 C322.493056,33.0965279 323.224471,35.5955291 323.041617,38.7040428 L323.041617,38.8868966 L323.224471,38.9478478 C326.942497,39.6792628 330.660523,39.6183115 334.683306,38.7040428 L334.866159,38.6430916 L334.866159,38.4602378 C335.109964,33.2184304 333.525232,28.6470868 330.294816,25.2338169 C326.272033,20.9672295 319.811201,18.7120333 311.643734,18.651082 L311.399929,18.651082 C296.223068,18.651082 287.08038,25.4166706 286.958478,36.7536029 C286.897527,48.0295838 297.259239,51.8085612 303.476266,54.0028062 L304.390535,54.3685137 C306.462878,55.0999287 308.413317,55.7703924 310.119952,56.3799049 C318.531225,59.3055648 323.590178,61.073151 323.773032,65.5225922 C323.833983,67.8387396 323.16352,69.7282283 321.761641,71.1910583 C319.75025,73.2634007 316.215077,74.2995719 311.521831,74.2386207 C306.340975,74.2386207 302.379144,72.8976932 300.123948,70.4596433 C298.478264,68.6311058 297.8078,66.3149584 298.051605,63.511201 L298.051605,63.3283472 L297.868751,63.267396 C294.089774,62.535981 290.249845,62.5969322 286.470868,63.4502497 L286.348966,63.511201 L286.348966,63.6940547 C286.044209,68.7530083 287.56799,73.2634007 290.859358,76.7376219 C295.247848,81.430868 302.440095,83.868918 311.704685,83.8079667 C320.786421,83.8079667 335.719477,81.3699168 335.841379,65.5225922 C335.658526,54.9780262 326.637741,51.5647562 317.921712,48.2124376 L317.921712,48.2124376 Z M363.086587,45.8962901 C370.583591,45.8962901 372.351177,50.77239 372.716885,53.6370987 L372.716885,53.8199524 L372.899738,53.8199524 C376.37396,54.3685137 379.665327,54.1247087 382.834792,53.21044 L383.017646,53.1494887 L383.017646,52.966635 C382.712889,48.5781451 380.823401,44.6163139 377.714887,41.7516052 C374.179715,38.5211891 369.120761,36.7536029 363.147539,36.7536029 C348.884946,36.7536029 341.022235,45.1039239 341.022235,60.2807848 C341.022235,75.3966944 348.823995,83.7470155 362.964685,83.7470155 C369.05981,83.7470155 374.179715,81.9794293 377.775838,78.6271106 C380.762449,75.8233532 382.590987,72.0443757 382.956694,67.9606421 L382.956694,67.7777883 L382.773841,67.7168371 C379.787229,66.6806659 376.495862,66.4978121 372.899738,67.1073246 L372.777836,67.1073246 L372.777836,67.2292271 C371.802616,74.0557669 365.15893,74.5433769 363.147539,74.5433769 C355.467681,74.5433769 351.871558,69.9720333 351.871558,60.1588823 C351.810606,50.4676338 355.40673,45.8962901 363.086587,45.8962901 L363.086587,45.8962901 Z M410.019049,36.8145541 C396.000262,36.8145541 388.259453,45.1648751 388.259453,60.341736 C388.259453,75.4576457 396.000262,83.8079667 410.019049,83.8079667 C424.037836,83.8079667 431.778644,75.4576457 431.778644,60.341736 C431.778644,45.1648751 424.037836,36.8145541 410.019049,36.8145541 Z M421.173127,60.4026873 C421.173127,70.0939358 417.516052,74.7871819 410.019049,74.7871819 C402.522045,74.7871819 398.86497,70.0939358 398.86497,60.4026873 C398.86497,50.528585 402.400143,45.8962901 410.019049,45.8962901 C417.516052,45.8962901 421.173127,50.6504875 421.173127,60.4026873 Z M466.886564,38.8259453 L466.70371,38.8868966 L466.70371,70.0939358 C463.168537,73.1414982 459.938121,74.4824257 456.220095,74.4824257 C450.978288,74.4824257 448.723092,71.4958145 448.723092,64.4254697 L448.723092,38.8259453 L448.540238,38.7649941 C445.005065,37.9116766 441.408942,37.9116766 437.812818,38.7649941 L437.629964,38.8259453 L437.629964,66.9244709 C437.629964,77.5909394 443.359382,83.7470155 453.416338,83.7470155 C458.780048,83.7470155 463.473294,81.674673 468.532247,77.0423781 L469.568419,81.918478 L469.690321,81.9794293 C472.250273,82.649893 474.932128,82.649893 477.492081,81.9794293 L477.674935,81.918478 L477.674935,38.8259453 L477.492081,38.7649941 C474.078811,37.9116766 470.482687,37.9116766 466.886564,38.8259453 L466.886564,38.8259453 Z M511.441926,73.568157 L511.380975,73.3853032 L511.198121,73.4462545 C506.931534,74.4214744 504.432533,74.3605232 502.969703,73.2024495 C501.750678,72.2272295 501.202117,70.5205945 501.202117,67.8387396 L501.202117,47.8467301 L509.857194,47.8467301 L509.918145,47.6638763 C510.527658,44.7382164 510.527658,41.7516052 509.918145,38.7649941 L509.857194,38.5821403 L501.202117,38.5821403 L501.202117,26.7575981 L501.019263,26.6966468 C497.48409,25.9042806 493.887967,25.9042806 490.352794,26.6966468 L490.169941,26.7575981 L490.230892,38.5821403 L484.745279,38.5821403 L484.684328,38.7649941 C484.013864,41.690654 484.013864,44.7382164 484.684328,47.6638763 L484.745279,47.8467301 L490.230892,47.8467301 L490.291843,67.0463734 C490.291843,72.4100832 490.596599,77.8347444 494.314625,80.943258 C496.326017,82.5889417 499.251677,83.4422592 503.030654,83.4422592 C505.346801,83.4422592 508.028656,83.137503 511.13717,82.5279905 L511.259073,82.5279905 L511.320024,82.406088 C512.173341,79.5413793 512.234293,76.5547681 511.441926,73.568157 L511.441926,73.568157 Z" fill="#2A3B47"></path>
        <path d="M6.0341736,59.2446136 L35.6564804,29.6223068 C39.496409,25.8433294 41.8735077,20.5405707 41.8735077,14.7502021 C41.8735077,9.02078478 39.5573603,3.77897741 35.8393341,0 L6.21702735,29.6223068 C2.37709869,33.4012842 0,38.7040428 0,44.4944114 C0,50.28478 2.31614744,55.4656361 6.0341736,59.2446136 Z M77.7737931,41.934459 L48.1514863,71.5567658 C44.3115577,75.3357432 41.934459,80.6385018 41.934459,86.4288704 C41.934459,92.1582878 44.2506064,97.4000951 47.9686326,101.179073 L77.5909394,71.5567658 C81.430868,67.7777883 83.8079667,62.4750297 83.8079667,56.6846611 C83.8079667,50.8942925 81.4918193,45.7134364 77.7737931,41.934459 Z M77.5909394,29.683258 C81.430868,25.9042806 83.8079667,20.601522 83.8079667,14.8111534 C83.8079667,9.08173603 81.4918193,3.83992866 77.7737931,0.0609512485 L6.21702735,71.5567658 C2.37709869,75.3966944 0,80.6385018 0,86.4898216 C0,92.219239 2.31614744,97.4610464 6.0341736,101.240024 L77.5909394,29.683258 Z" fill="#1292EE"></path>
    </g>
</svg>

<svg xmlns="http://www.w3.org/2000/svg" viewBox="0 0 512 101.85">
  <path fill="#2a3b47" d="m140.797 19.2-.182.06v27.246H114.77V19.26l-.183-.061c-3.84-.793-7.619-.793-11.398 0l-.182.06v62.658l.182.061c1.89.366 3.78.61 5.669.61 1.89 0 3.779-.183 5.73-.61l.182-.06V56.501h25.844v25.416l.182.061c3.78.793 7.62.793 11.398 0l.183-.06V19.26l-.183-.061c-3.84-.732-7.619-.732-11.398 0zm40.045 17.615c-13.53 0-21.576 8.533-21.576 22.856 0 7.436 1.706 13.349 5.12 17.432 3.718 4.45 9.264 6.705 16.64 6.705 12.494 0 18.894-7.436 19.686-14.811v-.183l-.182-.061c-3.17-1.036-6.096-1.28-9.57-.792h-.122v.122c-.731 4.388-4.388 7.009-9.69 7.009-7.437 0-11.094-4.084-11.216-12.495h31.45v-.183c.915-8.29-.73-14.994-4.753-19.565-3.718-3.901-9.143-6.034-15.787-6.034zm-.122 8.106c3.109 0 5.73.975 7.497 2.865 1.829 1.95 2.743 4.876 2.56 8.35h-20.845c.183-7.131 4.145-11.215 10.788-11.215zM209.002 19.2l-.183.06v62.658l.183.061c1.767.366 3.535.61 5.364.61 1.767 0 3.596-.183 5.363-.61l.183-.06V19.26l-.183-.061c-3.535-.793-7.131-.732-10.727 0zm41.751 17.615c-4.693 0-9.63 1.828-14.323 5.302l-.67-3.291-.122-.061c-2.682-.792-4.877-.792-7.497 0l-.122.06v62.354l.182.061c1.768.366 3.536.61 5.364.61 1.829 0 3.596-.183 5.364-.61l.183-.06V80.333c3.718 2.377 7.68 3.474 12.129 3.474 12.312 0 19.687-8.716 19.687-23.405-.06-14.933-7.375-23.588-20.175-23.588zM238.93 49.188c3.291-2.256 6.339-3.292 9.63-3.292 7.497 0 11.58 5.181 11.58 14.69 0 9.325-4.022 14.262-11.702 14.262-3.291 0-6.4-1.036-9.508-3.23zm78.993-.976c-1.89-.731-3.596-1.34-5.242-1.89-8.533-3.047-13.653-4.875-13.775-9.507-.061-2.134.61-3.962 2.072-5.486 2.134-2.194 5.73-3.352 10.118-3.352 4.328 0 7.68 1.158 9.691 3.291 1.707 1.829 2.438 4.328 2.256 7.436v.183l.182.06c3.718.732 7.437.671 11.46-.243l.182-.06v-.184c.244-5.242-1.34-9.813-4.571-13.226-4.023-4.267-10.484-6.522-18.651-6.583h-.244c-15.177 0-24.32 6.766-24.442 18.103-.06 11.276 10.301 15.055 16.518 17.249l.915.366c2.072.73 4.022 1.401 5.729 2.01 8.411 2.927 13.47 4.694 13.653 9.144.06 2.316-.61 4.205-2.011 5.668-2.012 2.072-5.547 3.109-10.24 3.048-5.181 0-9.143-1.341-11.398-3.78-1.646-1.828-2.316-4.144-2.072-6.948v-.183l-.183-.06a27.633 27.633 0 0 0-11.398.182l-.122.061v.183c-.305 5.059 1.219 9.57 4.51 13.044 4.389 4.693 11.581 7.13 20.846 7.07 9.081 0 24.014-2.438 24.136-18.285-.182-10.545-9.203-13.958-17.92-17.31zm45.165-2.316c7.497 0 9.264 4.876 9.63 7.741v.183h.183c3.474.549 6.765.305 9.935-.61l.183-.06v-.183c-.305-4.389-2.195-8.35-5.303-11.215-3.535-3.23-8.594-4.998-14.567-4.998-14.263 0-22.126 8.35-22.126 23.527 0 15.116 7.802 23.466 21.943 23.466 6.095 0 11.215-1.768 14.81-5.12a16.617 16.617 0 0 0 5.182-10.666v-.183l-.183-.061c-2.987-1.036-6.278-1.22-9.874-.61h-.122v.122c-.975 6.827-7.62 7.314-9.63 7.314-7.68 0-11.276-4.571-11.276-14.384-.061-9.691 3.535-14.263 11.215-14.263zm46.932-9.081c-14.019 0-21.76 8.35-21.76 23.527 0 15.116 7.741 23.466 21.76 23.466 14.019 0 21.76-8.35 21.76-23.466 0-15.177-7.741-23.527-21.76-23.527zm11.154 23.588c0 9.69-3.657 14.384-11.154 14.384s-11.154-4.693-11.154-14.384c0-9.874 3.535-14.507 11.154-14.507 7.497 0 11.154 4.754 11.154 14.507zm45.714-21.577-.183.06v31.208c-3.535 3.047-6.766 4.388-10.484 4.388-5.242 0-7.497-2.986-7.497-10.057v-25.6l-.183-.06c-3.535-.853-7.131-.853-10.727 0l-.183.06v28.1c0 10.666 5.73 16.822 15.786 16.822 5.364 0 10.057-2.072 15.116-6.705l1.036 4.876.122.061c2.56.67 5.242.67 7.802 0l.183-.06V38.825l-.183-.061c-3.413-.853-7.01-.853-10.605.06zm44.555 34.742-.061-.183-.183.061c-4.267.975-6.766.915-8.228-.244-1.22-.975-1.768-2.681-1.768-5.363V47.847h8.655l.061-.183c.61-2.926.61-5.912 0-8.899l-.06-.183h-8.656V26.758l-.183-.061a24.228 24.228 0 0 0-10.666 0l-.183.06.06 11.825h-5.485l-.06.183a19.937 19.937 0 0 0 0 8.899l.06.183h5.486l.06 19.2c0 5.363.305 10.788 4.023 13.896 2.012 1.646 4.938 2.5 8.717 2.5 2.316 0 4.998-.305 8.106-.915h.122l.06-.122c.854-2.865.915-5.851.123-8.838z"/>
  <path fill="#1292ee" d="m6.034 59.245 29.622-29.623a20.86 20.86 0 0 0 6.218-14.872c0-5.73-2.317-10.971-6.035-14.75L6.217 29.622A20.86 20.86 0 0 0 0 44.494c0 5.79 2.316 10.972 6.034 14.75zm71.74-17.31L48.15 71.556a20.86 20.86 0 0 0-6.217 14.872c0 5.73 2.317 10.971 6.035 14.75L77.59 71.557a20.86 20.86 0 0 0 6.217-14.872c0-5.79-2.316-10.972-6.034-14.75zm-.183-12.252a20.86 20.86 0 0 0 6.217-14.872c0-5.73-2.316-10.971-6.034-14.75L6.217 71.557C2.377 75.397 0 80.639 0 86.49c0 5.73 2.316 10.971 6.034 14.75z"/>
</svg>
